img/icons/design/clipboard.svg

<svg xmlns="http://www.w3.org/2000/svg" viewBox="0 0 38 48"><path d="M24 6V5a5 5 0 00-10 0v1H0v42h38V6zM11 8h16v3a1 1 0 01-1 1H12a1 1 0 01-1-1zm5-3a3 3 0 016 0v1h-6zm20 41H2V8h7v3a3 3 0 003 3h14a3 3 0 003-3V8h7z" fill="#231f20" data-name="Layer 2"/></svg>

<svg xmlns="http://www.w3.org/2000/svg" viewBox="0 0 38 48"><defs><style>.cls-1{fill:#231f20;}</style></defs><title>Clipboard</title><g id="Layer_2" data-name="Layer 2"><g id="Icons"><g id="Design"><path id="Clipboard" class="cls-1" d="M24,6V5A5,5,0,0,0,14,5V6H0V48H38V6ZM11,8H27v3a1,1,0,0,1-1,1H12a1,1,0,0,1-1-1Zm5-3a3,3,0,0,1,6,0V6H16ZM36,46H2V8H9v3a3,3,0,0,0,3,3H26a3,3,0,0,0,3-3V8h7Z"/></g></g></g></svg>
